X: 23064
T: Late Nights At The Central
R: jig
M: 6/8
K: Edorian
|:B|E^DE FEE|E^DE ABB|AB/c/d F^EF|ABF AFB|
ED/D/D FEE|E^DE BAF|ABd D2 A|BAF E2:|
|:A|B^AB egf|edB dcB|BAF F^EF|EDB DF/G/A|
[1 B^AB egf|edB d2 B|BAF AFF|FE^D E2:|
[2 EE/E/E FE/E/E|ABd Afe|edB BFd|FE^D E2||

